X: 596
T: Portsmouth
P: Longways for as many as will
%R: reel
B: "The Compleat Country Dancing-Master" printed by John Walsh, London ca. 1740
S: 6: CCDM1 http://imslp.org/wiki/The_Compleat_Country_Dancing-Master_(Various) V.1 p.74 #103
B: "The Dancing-Master: Containing Directions and Tunes for Dancing" printed by W. Pearson for John Walsh, London ca. 1709
S: 7: DMDfD http://digital.nls.uk/special-collections-of-printed-music/pageturner.cfm?id=89751228 p.243 "Y 2"
Z: 2013 John Chambers <jc:trillian.mit.edu>
M: C|
L: 1/8
K: G
% - - - - - - - - - - - - - - - - - - - - - - - - -
D2 |\
G3 A (BA) (GF) | E4 e4 | d2 B2 (cB) (AG) | A6 D2 |\
G3 A (BA) (GF) | E4 e4 | d2 B2 (cB) (AB) | G6 |]
d2 |\
g3 a (ba) (gf) | g2 d2- d2 B2 | g2 B2 (cB) (AG) | A6 D2 |\
G3 A (BA) (GF) | E4 e4 | d2 B2 (cB) (AB) | G6 |]
% - - - - - - - - - - - - - - - - - - - - - - - - -
%%begintext align
%% The first Man Hey with the first and second
%% Wo. the 1st Wo. do the same with the first and second
%% Men; then the first Couple cross over and
%% figure in; then right and left quite round.
%% [CCDM1]
%%endtext
%%sep 1 1 500
% - - - - - - - - - - - - - - - - - - - - - - - - -
%%begintext align
%% The first man Hey with the first and second woman, the first woman do the same with the first and
%% second man; then the first couple cross over and Figure in; then right and left quite round.
%% [DMDfD]
%%endtext
%%sep 1 8 500

%%sep 1 1 500
%%sep 1 1 500
